cmd/conneroh/_static/dist/svg/keyboard-off.svg

<svg height="18" viewBox="0 0 18 18" width="18" xmlns="http://www.w3.org/2000/svg"><path d="m20 4c1.104167 0 2 .895833 2 2m0 0v10.411458m-15-.411458h9m-6.3125-12h10.3125m-6 4h.010417m3.989583 0h.010417m-16.010417-6 20 20m-2-2h-16c-1.104167 0-2-.895833-2-2v-12c0-1.104167.895833-2 2-2m2 4h.010417m1.989583 4h.010417" fill="none" stroke="#fff" stroke-linecap="round" stroke-linejoin="round" stroke-width="2" transform="scale(.75)"/></svg>

<svg xmlns="http://www.w3.org/2000/svg" width="24" height="24" fill="none" stroke="white" stroke-linecap="round" stroke-linejoin="round" stroke-width="2">
    <path d="M20 4a2 2 0 0 1 2 2m0 0v10.41M7 16h9M9.69 4H20m-6 4h.01M18 8h.01M2 2l20 20m-2-2H4a2 2 0 0 1-2-2V6a2 2 0 0 1 2-2m2 4h.01M8 12h.01"/>
</svg>
